icons/glyphs/glyph-ms-windows.svg

<?xml version="1.0" encoding="UTF-8" standalone="no"?><svg height="16mm" viewBox="0 0 16 16" width="16mm" xmlns="http://www.w3.org/2000/svg"><sodipodi:namedview/><metadata><rdf:RDF><cc:Work><dc:format>image/svg+xml</dc:format><dc:type/><dc:title/></cc:Work></rdf:RDF></metadata><path d="m .02465105 2.2653298 6.51854495-.88776.0029 6.2876703-6.51543965.0371zm6.51543985 6.1243704.0051 6.2931498-6.51543965-.89578-.0003654-5.4395798zm.7902-7.1282604 8.6430491-1.26143995v7.58527025l-8.6430491.0686zm8.6450581 7.1874403-.002 7.5511199-8.64305-1.21987-.01211-6.3453899z" fill="#d0d0d0" stroke-width=".182659"/></svg>

<?xml version="1.0" encoding="UTF-8" standalone="no"?>
<!-- Created with Inkscape (http://www.inkscape.org/) -->

<svg
   xmlns:dc="http://purl.org/dc/elements/1.1/"
   xmlns:cc="http://creativecommons.org/ns#"
   xmlns:rdf="http://www.w3.org/1999/02/22-rdf-syntax-ns#"
   xmlns:svg="http://www.w3.org/2000/svg"
   xmlns="http://www.w3.org/2000/svg"
   xmlns:sodipodi="http://sodipodi.sourceforge.net/DTD/sodipodi-0.dtd"
   xmlns:inkscape="http://www.inkscape.org/namespaces/inkscape"
   width="16mm"
   height="16mm"
   viewBox="0 0 16 16"
   version="1.1"
   id="svg8"
   inkscape:version="0.92+devel (bc9c9b4297, 2017-07-16, custom)"
   sodipodi:docname="glyph-ms-windows.svg">
  <defs
     id="defs2" />
  <sodipodi:namedview
     id="base"
     pagecolor="#002466"
     bordercolor="#ffffff"
     borderopacity="0.38039216"
     inkscape:pageopacity="1"
     inkscape:pageshadow="2"
     inkscape:zoom="7.1685545"
     inkscape:cx="30.23622"
     inkscape:cy="30.23622"
     inkscape:document-units="mm"
     inkscape:current-layer="svg8"
     inkscape:document-rotation="0"
     showgrid="false"
     inkscape:showpageshadow="false"
     borderlayer="true"
     inkscape:window-width="1920"
     inkscape:window-height="1051"
     inkscape:window-x="0"
     inkscape:window-y="0"
     inkscape:window-maximized="1" />
  <metadata
     id="metadata5">
    <rdf:RDF>
      <cc:Work
         rdf:about="">
        <dc:format>image/svg+xml</dc:format>
        <dc:type
           rdf:resource="http://purl.org/dc/dcmitype/StillImage" />
        <dc:title></dc:title>
      </cc:Work>
    </rdf:RDF>
  </metadata>
  <path
     id="path831"
     d="m 0.02465105,2.2653298 6.51854495,-0.88776 0.0029,6.2876703 -6.51543965,0.0371 z M 6.5400909,8.3897002 6.5451909,14.68285 0.02975125,13.78707 0.02938585,8.3474902 Z M 7.3302909,1.2614398 15.97334,-1.5e-7 V 7.5852701 l -8.6430491,0.0686 z M 15.975349,8.4488801 15.973349,16 7.330299,14.78013 7.318189,8.4347401 Z"
     style="fill:#d0d0d0;stroke-width:0.18265879"
     inkscape:connector-curvature="0"
     inkscape:label="#" />
</svg>
